X:2088 
T:I lay my body down to sleep
T:Er ean bashtey 
C:Traditional
O:Isle of Man
N:See also KV 44, 46, 268 and 292 (Er ean bashtey, 2nd version JFSS)
Z:Clague Collection
B:Kiaull Vannin #88 
M:3/4
L:1/4 
Q:100 
K:D 
B|B2 B|f2 f|e2 d|c2 c|d2 d|e2 e|f2 g| 
(fe) d|c2 B|e2 e|f2 B|d2 f|c2 {d}c|B2|| 

